X: 1692
T: Anthony Frawley's
R: jig
M: 6/8
K: Gmajor
GED GBA|GED G2 A|GED G2 B|dBG B/c/dB|
GED G2 B|def g2 a|bag e/f/ge|dBG A:|
dB/c/d edB|def g2 e|d^cd edB|dBG ABc|
d^cd edB|def g2 a|bag e/f/ge|dBG A:|

